X:1
T:The Sherman Cyclone
M:6/8
L:1/4
K:Ab
 E/2| A A/2 c A/2| A/2 F- F F/2| E A/2 A c/2| B3/2- B E/2| A A/2 c A/2|\
 G/2 F- F F/2| E G/2 c B/2| A3/2- A A/2| d/2 d d d/2| d/2 c- c c/2|\
 A A/2 A c/2| B3/2- B E/4E/4| A A/2 c A/2| A/2 F- F F/4F/4| E A/2 c B/2|\
 A3/2- A||
